X: 57
T: Pollonesse #57
M: 3/4
L: 1/16
K: Bb
Q:120
|gfga b2a2 g2f2|agfg d4B4|dBdB cAcA BGBG|cAcA BGBG A4|
gfga b2a2 g2f2|agfg d4B4|edcB dcBA cBAG|BAGF G6 G,2:|
|:d4cdcA B2d2|cdcA BABd A4| d4 cdcA B2d2|c2cA B2BG A4|
gfga b2a2 g2f2|agfg d4B4|edcB dcBA cBAG|BAdF G6G,2:|

